X: 1
T: Weaver's Daughter, The
M: 4/4
L: 1/8
R: strathspey
S: jmccain@vei.net
K: Gmin
d|B<GG>A B<FF>d|B<GG>F (e3g)|f>e"tr"(d>c) B>GF<e|d>c(B>A) {^F}G3 G :|
^f|g=e f<cc>^f|g>dd>g dg)|b>d(d>c) "tr"B>GF<e|(d>c)"tr"(B>A) {^F}G3 G:|
